X: 25781
T: Mash-Tub March, The
R: waltz
M: 3/4
K: Dmajor
|:FG A2 AG|F>G AF D2|E/F/G A^G AF|Ad c2 E2|
Bc de f2|f/e/d c>B A2|1 Bc d3 f|ec d2 D2:|2 Bc df ec|d2 D4||
|:f3 g a/g/f|e/f/e d/c/B A2|B2 Bc d>B|AG FE D2|
fd e/f/g a2|ed cB A2|Bc d2 e/d/c|d2 D4:|

